app/images/icon/social-inst.svg

<svg width="30" height="30" viewBox="0 0 30 30" fill="none" xmlns="http://www.w3.org/2000/svg">
<rect width="30" height="30" rx="2" fill="#B24293"/>
<path d="M12.334 15C12.334 13.5273 13.5276 12.3331 15.0003 12.3331C16.4731 12.3331 17.6673 13.5273 17.6673 15C17.6673 16.4727 16.4731 17.6669 15.0003 17.6669C13.5276 17.6669 12.334 16.4727 12.334 15ZM10.8923 15C10.8923 17.2688 12.7314 19.1079 15.0003 19.1079C17.2692 19.1079 19.1084 17.2688 19.1084 15C19.1084 12.7312 17.2692 10.8921 15.0003 10.8921C12.7314 10.8921 10.8923 12.7312 10.8923 15ZM18.311 10.7292C18.3109 10.9191 18.3671 11.1047 18.4726 11.2626C18.578 11.4205 18.7279 11.5436 18.9033 11.6164C19.0787 11.6891 19.2717 11.7082 19.4579 11.6712C19.6442 11.6343 19.8153 11.5429 19.9496 11.4087C20.0839 11.2745 20.1754 11.1035 20.2125 10.9173C20.2497 10.7311 20.2307 10.538 20.1581 10.3626C20.0855 10.1871 19.9625 10.0372 19.8047 9.9316C19.6469 9.82605 19.4613 9.76968 19.2714 9.7696H19.271C19.0165 9.76972 18.7724 9.87085 18.5924 10.0508C18.4124 10.2307 18.3112 10.4747 18.311 10.7292ZM11.7682 21.5118C10.9882 21.4763 10.5642 21.3464 10.2825 21.2366C9.90898 21.0912 9.64247 20.918 9.36227 20.6382C9.08207 20.3584 8.90862 20.0922 8.76385 19.7187C8.65402 19.4371 8.52409 19.013 8.48864 18.233C8.44985 17.3898 8.44211 17.1364 8.44211 15.0001C8.44211 12.8637 8.45049 12.6111 8.48864 11.7671C8.52416 10.9871 8.65504 10.5639 8.76385 10.2815C8.90926 9.90797 9.08245 9.64147 9.36227 9.36128C9.64209 9.08109 9.90834 8.90765 10.2825 8.76288C10.5641 8.65306 10.9882 8.52314 11.7682 8.48768C12.6115 8.4489 12.8648 8.44115 15.0003 8.44115C17.1358 8.44115 17.3894 8.44954 18.2334 8.48768C19.0134 8.5232 19.4367 8.65408 19.7191 8.76288C20.0926 8.90765 20.3591 9.08147 20.6393 9.36128C20.9195 9.64109 21.0923 9.90797 21.2378 10.2815C21.3476 10.5631 21.4775 10.9871 21.513 11.7671C21.5518 12.6111 21.5595 12.8637 21.5595 15.0001C21.5595 17.1364 21.5518 17.3891 21.513 18.233C21.4774 19.013 21.3469 19.4369 21.2378 19.7187C21.0923 20.0922 20.9192 20.3587 20.6393 20.6382C20.3595 20.9178 20.0926 21.0912 19.7191 21.2366C19.4375 21.3464 19.0134 21.4764 18.2334 21.5118C17.3901 21.5506 17.1368 21.5583 15.0003 21.5583C12.8639 21.5583 12.6112 21.5506 11.7682 21.5118ZM11.7019 7.04845C10.8503 7.08723 10.2683 7.22227 9.76005 7.42003C9.23369 7.62426 8.7881 7.89824 8.34284 8.34278C7.89757 8.78733 7.62428 9.2336 7.42005 9.75994C7.22228 10.2685 7.08724 10.8501 7.04845 11.7018C7.00902 12.5548 7 12.8275 7 15C7 17.1725 7.00902 17.4452 7.04845 18.2982C7.08724 19.15 7.22228 19.7315 7.42005 20.2401C7.62428 20.7661 7.89764 21.2129 8.34284 21.6572C8.78804 22.1016 9.23369 22.3752 9.76005 22.58C10.2693 22.7777 10.8503 22.9128 11.7019 22.9516C12.5554 22.9903 12.8277 23 15.0003 23C17.173 23 17.4457 22.991 18.2987 22.9516C19.1504 22.9128 19.732 22.7777 20.2406 22.58C20.7666 22.3752 21.2125 22.1018 21.6578 21.6572C22.1031 21.2127 22.3758 20.7661 22.5806 20.2401C22.7784 19.7315 22.914 19.1499 22.9522 18.2982C22.991 17.4446 23 17.1725 23 15C23 12.8275 22.991 12.5548 22.9522 11.7018C22.9134 10.85 22.7784 10.2682 22.5806 9.75994C22.3758 9.23392 22.1024 8.78803 21.6578 8.34278C21.2132 7.89754 20.7666 7.62426 20.2412 7.42003C19.732 7.22227 19.1504 7.08659 18.2993 7.04845C17.4463 7.00966 17.1736 7 15.001 7C12.8283 7 12.5554 7.00902 11.7019 7.04845Z" fill="white"/>
</svg>

<svg width="30" height="30" fill="none" xmlns="http://www.w3.org/2000/svg">
    <rect width="30" height="30" rx="2" fill="#B24293"/>
    <path d="M12.334 15a2.667 2.667 0 1 1 5.333 0 2.667 2.667 0 0 1-5.333 0Zm-1.442 0a4.108 4.108 0 1 0 8.216 0 4.108 4.108 0 0 0-8.216 0Zm7.419-4.27a.96.96 0 1 0 .96-.96.96.96 0 0 0-.96.96Zm-6.543 10.782c-.78-.036-1.204-.166-1.486-.275a2.486 2.486 0 0 1-.92-.599 2.468 2.468 0 0 1-.598-.92c-.11-.28-.24-.705-.275-1.485-.04-.843-.047-1.097-.047-3.233s.008-2.389.047-3.233c.035-.78.166-1.203.275-1.486.145-.373.318-.64.598-.92.28-.28.546-.453.92-.598.282-.11.706-.24 1.486-.275.843-.04 1.097-.047 3.232-.047 2.136 0 2.39.009 3.233.047.78.035 1.204.166 1.486.275.374.145.64.318.92.598.28.28.453.547.599.92.11.282.24.706.275 1.486.039.844.046 1.097.046 3.233s-.007 2.39-.046 3.233c-.036.78-.166 1.204-.275 1.486-.146.373-.319.64-.599.92-.28.279-.546.452-.92.598-.282.11-.706.24-1.486.275-.843.039-1.096.046-3.233.046-2.136 0-2.389-.007-3.232-.046Zm-.066-14.464c-.852.04-1.434.174-1.942.372a3.924 3.924 0 0 0-1.417.923c-.445.444-.719.89-.923 1.417-.198.508-.333 1.09-.372 1.942C7.01 12.555 7 12.828 7 15s.009 2.445.048 3.298c.04.852.174 1.434.372 1.942.204.526.478.973.923 1.417.445.445.89.718 1.417.923.51.198 1.09.333 1.942.372.853.038 1.126.048 3.298.048 2.173 0 2.446-.009 3.299-.048.851-.04 1.433-.174 1.942-.372a3.934 3.934 0 0 0 1.417-.923c.445-.444.718-.89.923-1.417.197-.508.333-1.09.371-1.942.039-.853.048-1.125.048-3.298 0-2.172-.009-2.445-.048-3.298-.039-.852-.174-1.434-.371-1.942a3.934 3.934 0 0 0-.923-1.417 3.915 3.915 0 0 0-1.417-.923c-.509-.198-1.09-.333-1.942-.372C17.446 7.01 17.174 7 15.001 7s-2.446.009-3.3.048Z" fill="#fff"/>
</svg>
